react_webviews/src/assets/finity/ic_document_location.svg

<svg width="20" height="25" viewBox="0 0 20 25" fill="none" xmlns="http://www.w3.org/2000/svg">
<path d="M18.1703 4.347C16.2933 1.585 13.3143 0 10.0003 0C6.68729 0 3.71029 1.585 1.83029 4.347C-0.03971 7.095 -0.47171 10.574 0.67329 13.648C0.97929 14.488 1.46529 15.303 2.11529 16.068L9.34529 24.692C9.50929 24.887 9.74829 25 10.0003 25C10.2523 25 10.4923 24.888 10.6563 24.692L17.8833 16.07C18.5363 15.301 19.0233 14.487 19.3263 13.654C20.4723 10.574 20.0413 7.095 18.1713 4.347H18.1703ZM17.7143 13.042C17.4803 13.684 17.0983 14.319 16.5793 14.93L16.5753 14.935L10.0003 22.778L3.42229 14.93C2.90329 14.32 2.52129 13.684 2.28529 13.036C1.33829 10.494 1.69729 7.616 3.24529 5.341C4.80029 3.058 7.26229 1.748 10.0003 1.748C12.7403 1.748 15.2013 3.058 16.7553 5.341C18.3033 7.617 18.6633 10.494 17.7143 13.041V13.042Z" fill="#675AF6"/>
<path d="M9.99969 5.186C7.34269 5.186 5.17969 7.382 5.17969 10.082C5.17969 12.781 7.34269 14.977 9.99969 14.977C12.6577 14.977 14.8197 12.781 14.8197 10.082C14.8197 7.382 12.6577 5.186 9.99969 5.186ZM9.99969 13.228C8.29169 13.228 6.90169 11.817 6.90169 10.082C6.90169 8.346 8.29169 6.935 9.99969 6.935C11.7087 6.935 13.0987 8.346 13.0987 10.082C13.0987 11.817 11.7087 13.228 9.99969 13.228Z" fill="#675AF6"/>
</svg>

<svg xmlns="http://www.w3.org/2000/svg" width="20" height="25" viewBox="0 0 20 25">
    <g fill="#3792FC">
        <path d="M18.17 4.347C16.293 1.585 13.314 0 10 0 6.687 0 3.71 1.585 1.83 4.347-.04 7.095-.472 10.574.673 13.648c.306.84.792 1.655 1.442 2.42l7.23 8.624c.164.195.403.308.655.308s.492-.112.656-.308l7.227-8.622c.653-.769 1.14-1.583 1.443-2.416 1.146-3.08.715-6.559-1.155-9.307zm-.456 8.695c-.234.642-.616 1.277-1.135 1.888l-.004.005L10 22.778 3.422 14.93c-.519-.61-.901-1.246-1.137-1.894-.947-2.542-.588-5.42.96-7.695C4.8 3.058 7.262 1.748 10 1.748c2.74 0 5.201 1.31 6.755 3.593 1.548 2.276 1.908 5.153.959 7.7z"/>
        <path d="M10 5.186c-2.657 0-4.82 2.196-4.82 4.896 0 2.699 2.163 4.895 4.82 4.895 2.658 0 4.82-2.196 4.82-4.895 0-2.7-2.162-4.896-4.82-4.896zm0 8.042c-1.708 0-3.098-1.411-3.098-3.146 0-1.736 1.39-3.147 3.098-3.147 1.709 0 3.099 1.411 3.099 3.147 0 1.735-1.39 3.146-3.099 3.146z"/>
    </g>
</svg>
